!!!!SEGMENT: pl-kk--kk-i-88--003-003_golabek-jakub--missa-3-et-in-terra.krn
!!!cenid: 17xx:2584
!!!COM: Gołąbek, Jakub
!!!COM-rismID: pe30008748
!!!CDT: 1739-1789/03/30
!!!CNT: Polish
!!!OPR: Missa 3
!!!OTL: Et in terra
!!!OMV: 003
!!!PDT:
!!!AGN: Sacred; Mass
!!!YEC: Copyright 2022 Narodowy Instytut Fryderyka Chopina (https://polishscores.org)
!!!YEM: License CC-BY-4.0 (https://creativecommons.org/licenses/by/4.0)
!!!SMS-siglum: PL-Kk
!!!SMS-shelfmark: Kk.I.88
!!!SMS-variant:
!!!SMS-altvar:
!!!SMS-shelfwork: 003-003 M
!!!NIFC-rismSourceID: 1001164072
!!!NIFC-rismChildID: 1001164082
!!!NIFC-islandoraID:
!!!URL-pdf-islandora: https://repozytorium.nifc.pl/islandora/object/pl-kk%3A3086/datastream/PDF/view
!!!URL-scan: https://polish.musicsources.pl/pl/lokalizacje/galeria/rekopisy/6148-missa/4 @EN{Scan on Polish Music Sources Website} @PL{Skany w portalu Dziedzictwo Muzyki Polskiej w otwartym dostępie}
!!!IIIF:
!!!ONB-nifc: UWAGA: C - f. 6r-7v; A - f. 14r-15v; T - f. 22r-23v; B - f. 30r-31v; B rip - f. 35r-36v. Proszę uwzględniać B rip. Części Mszy: 1. Kyrie, 2. Christe, 3. Et in terra, 4. Quoniam, 5. Sanctus, 6. Osanna, 7. Benedictus, 8. Agnus Dei.
!!!OMD:
!!!AIN: 1 alto 2 bass 1 canto 1 tenor
!!!key: C
**kern	**text	**kern	**text	**kern	**text	**kern	**text	**kern	**text
*part5	*part5	*part4	*part4	*part3	*part3	*part2	*part2	*part1	*part1
*staff5	*staff5	*staff4	*staff4	*staff3	*staff3	*staff2	*staff2	*staff1	*staff1
*I"Baſso E ripieno	*	*I"Baſso	*	*I"Tenore	*	*I"Alto	*	*I"Canto	*
*I'B rip	*	*I'B	*	*I'T	*	*I'A	*	*I'S	*
*Ibass	*	*Ibass	*	*Itenor	*	*Ialto	*	*Icanto	*
*ICvox	*	*ICvox	*	*ICvox	*	*ICvox	*	*ICvox	*
*clefF4	*	*clefF4	*	*clefC4	*	*clefC3	*	*clefC1	*
*k[]	*	*k[]	*	*k[]	*	*k[]	*	*k[]	*
*C:	*	*C:	*	*C:	*	*C:	*	*C:	*
*M2/2	*	*M2/2	*	*M2/2	*	*M2/2	*	*M2/2	*
*met(c|)	*	*met(c|)	*	*met(c|)	*	*met(c|)	*	*met(c|)	*
=1	=1	=1	=1	=1	=1	=1	=1	=1	=1
4c\	Et	4c\	Et	4G/	Et	4e\	Et	4cc\	Et
4G\	in	4G\	in	4B/	n	4d\	in	4b\	in
8F\L	ter-	8F\L	ter-	4G/	ter-	8e\L	ter-	4cc\	ter-
8E\J	.	8E\J	.	.	.	8g\J	.	.	.
8D\L	-ra	8D\L	-ra	4G/	-ra	8f\L	-ra	4cc\	-ra
8C\J	.	8C\J	.	.	.	8e\J	.	.	.
=2	=2	=2	=2	=2	=2	=2	=2	=2	=2
4G\	pax	4G\	pax	4B\	pax	4d\	pax	4b\	pac
8G\L	ho-	8G\L	ho-	8B\L	ho-	4g\	ho-	4dd\	ho-
8A\J	.	8A\J	.	8c\J	.	.	.	.	.
8B\L	-mi-	8B\L	-mi-	8d\L	-mi-	4g\	-mi-	4dd\	-mi-
8A\J	.	8A\J	.	8c\J	.	.	.	.	.
8B\L	-ni-	8B\L	-ni-	8d\L	-ni-	4g\	-ni-	4dd\	-ni-
8G\J	.	8G\J	.	8B\J	.	.	.	.	.
=3	=3	=3	=3	=3	=3	=3	=3	=3	=3
4c\	-bus	4c\	-bus	4G/	-bus	4g\	-bus	4cc\	-bus
8G\	bo-	8G\	bo-	8B/	bo-	8d\	bo-	8b\	bo-
8G\	-nae-	8G\	-nae-	8B/	-nae-	8d\	-nae-	8b\	-nae-
8F\L	-vo-	8F\L	-vo-	4G/	-vo-	8e\L	-vo-	4cc\	-vo-
8E\J	.	8E\J	.	.	.	8g\J	.	.	.
8D\L	-lun-	8D\L	-lun-	4G/	-lun-	8f\L	-lun-	4cc\	-lun-
8C\J	.	8C\J	.	.	.	8e\J	.	.	.
=4	=4	=4	=4	=4	=4	=4	=4	=4	=4
4G\	-ta-	4G\	-ta-	4B\	-ta-	4d\	-ta-	4g/	-ta-
4GG/	-tis	4GG/	-tis	4B\	-tis	4d\	-tis.	4g/	-tis
4r	.	4r	.	4r	.	4r	.	4r	.
4G\	Lau-	4G\	Lau-	4G/	Lau-	8d\L	Lau-	8b\L	Lau-
.	.	.	.	.	.	8e\J	.	8cc\J	.
!	!	!	!	!	!	!LO:LB:g=original	!	!	!
=5	=5	=5	=5	=5	=5	=5	=5	=5	=5
*2\right	*	*2\right	*	*2\right	*	*	*	*	*
2G\	-da-	2G\	-da-	2B\	-da-	4f\	-da-	4dd\	-da-
.	.	.	.	.	.	4e\	.	4cc\	.
!	!	!	!	!	!	!	!	!LO:LB:g=original	!
=-	=-	=-	=-	=-	=-	=-	=-	=-	=-
2G\	-mus	2G\	-mus	2B\	-mus	4d\	.	4b\	.
.	.	.	.	.	.	4f\	-mus	4dd\	-mus
!	!	!LO:LB:g=original	!	!LO:LB:g=original	!	!	!	!	!
=6	=6	=6	=6	=6	=6	=6	=6	=6	=6
*	*	*	*	*	*	*2\right	*	*2\right	*
2c\	te,	2c\	te,	2G/	te,	2e\	te,	2cc\	te,
4B\	be-	4B\	be-	4d\	be-	4g\	be-	4dd\	be-
4c\	-ne-	4c\	-ne-	4c\	-ne-	4g\	-ne-	4ee\	-ne-
=7	=7	=7	=7	=7	=7	=7	=7	=7	=7
4d\	-di-	4d\	-di-	4B\	-di-	2g\	-di-	4ff\	-di-
4c\	.	4c\	.	4c\	.	.	.	4ee\	.
4B\	-ci-	4B\	-ci-	4d\	-ci-	4g\	-ci-	4dd\	-ci-
4d\	-mus	4d\	-mus	4B\	-mus	4g\	-mus	4ff\	-mus
!LO:LB:g=original	!	!	!	!	!	!	!	!	!
=8	=8	=8	=8	=8	=8	=8	=8	=8	=8
2c\	te,	2c\	te,	2c\	te,	2g\	te,	2ee\	te,
4c\	a-	4c\	a-	4c\	a-	4g\	a-	4ee\	a-
4G\	-do-	4G\	-do-	4B\	-do-	4f\	-do-	4dd\	-do-
=9	=9	=9	=9	=9	=9	=9	=9	=9	=9
4C/	-ra-	4C/	-ra-	4G/	-ra-	4e\	-ra-	4cc\	-ra-
4BB/	-mus	4BB/	-mus	4A/	-mus	4a\	-mus	4ff\	-mus
4C/	te,	4C/	te,	4G/	te,	4g\	te,	4ee\	te
4D/	glo-	4D/	glo-	4B\	glo-	4f\	glo-	4dd\	glo-
=10	=10	=10	=10	=10	=10	=10	=10	=10	=10
4E/	-ri-	4E/	-ri-	4c\	-ri-	4e\	-ri-	4cc\	-ri-
4D/	.	4D/	.	4B\	.	4f\	.	4dd\	-fi-
4C/	.	4C/	.	4G/	.	4e\	-fi-	4cc\	-ca-
4F\	-fi-	4F\	-fi-	4G/	-fi-	4d\	.	4b\	.
=11	=11	=11	=11	=11	=11	=11	=11	=11	=11
2G\	-ca-	2G\	-ca-	2G/	-ca-	2e\	-ca-	2cc\	.
2GG/	-mus	2GG/	-mus	2G/	-mus	2d\	-mus	2b\	-mus
=12	=12	=12	=12	=12	=12	=12	=12	=12	=12
2C/	te	2C/	te	2G/	te	2e\	te	2cc\	te
2r	.	2r	.	2r	.	2r	.	2r	.
!	!	!LO:PB:g=original	!	!LO:PB:g=original	!	!LO:PB:g=original	!	!LO:PB:g=original	!
=13	=13	=13	=13	=13	=13	=13	=13	=13	=13
2B-X\	Gra-	2B-X\	Gra-	2G/	Gra-	2e\	Gra-	2cc\	Gra-
4B-\	-ti-	4B-\	-ti-	4G/	-ti-	4e\	-ti-	4cc\	-ti-
4B-\	-as	4B-\	-as	4G/	-as	4e\	-as	4cc\	-as
=14	=14	=14	=14	=14	=14	=14	=14	=14	=14
4.A\	a-	4.A\	a-	4.F/	a-	4.f\	a-	4.cc\	a-
8A\	-gi-	8A\	-gi-	8F/	-gi-	8f\	-gi-	8cc\	-gi-
2A\	-mus	2A\	-mus	2F/	-mus	2f\	-mus	2cc\	-mus
=15	=15	=15	=15	=15	=15	=15	=15	=15	=15
4G\	ti-	4G\	ti-	4G/	ti-	4e\	ti-	1cc	ti-
4F\	.	4F\	.	4A/	.	4f\	.	.	.
4E\	.	4E\	.	4B-X/	.	4g\	.	.	.
4C/	.	4C/	.	4G/	.	4e\	.	.	.
=16	=16	=16	=16	=16	=16	=16	=16	=16	=16
2F\	-bi	2F\	-bi	2A\	-bi	2f\	-bi	2cc\	-bi
4A\	p(ro)p-	4A\	p(ro)p-	4c\	p(ro)p-	4f\	p(ro)p-	4f/	p(ro)p-
4A\	-ter	4A\	-ter	4c\	-ter	4f\	-ter	4f/	-ter
!LO:PB:g=original	!	!	!	!	!	!	!	!	!
=17	=17	=17	=17	=17	=17	=17	=17	=17	=17
2B-X\	ma-	2B-X\	ma-	2B-X\	ma-	2d\	ma-	2f/	ma-
2G\	-gnam	2G\	-gna(m)	2B-\	-gna(m)	2e\	-gnam	2cc\	-gnam
=18	=18	=18	=18	=18	=18	=18	=18	=18	=18
2A\	glo-	2A\	glo-	2A/	glo-	2f\	glo-	2cc\	glo-
4B-X\	-ri-	4B-X\	-ri-	4G/	-ri-	4g\	-ri-	4cc\	-ri-
8A\L	-am	8A\L	-am	4F/	-am	4f\	-am	4cc\	-am
8B-\J	.	8B-\J	.	.	.	.	.	.	.
=19	=19	=19	=19	=19	=19	=19	=19	=19	=19
2c\	tu-	2c\	tu-	1c	tu-	2f\	tu-	2a\	tu-
2C/	.	2C/	.	.	.	2e\	.	2g\	.
=20	=20	=20	=20	=20	=20	=20	=20	=20	=20
2F\	-am	2F\	-am.	2c\	-am.	2f\	-am	2a\	-am.
!	!	!	!	!	!	!LO:LB:g=original	!	!	!
=-	=-	=-	=-	=-	=-	=-	=-	=-	=-
4D\	Do-	4D\	Do-	4d\	Do-	4f\	Do-	4a\	Do-
8D\	-mi-	8D\	-mi-	8d\	-mi-	8f\	-mi-	8a\	-mi-
8D\	-ne	8D\	-ne	8d\	-ne	8f\	-ne	8a\	-ne
!	!	!LO:LB:g=original	!	!LO:LB:g=original	!	!	!	!LO:LB:g=original	!
=21	=21	=21	=21	=21	=21	=21	=21	=21	=21
4A\	De-	4A\	De-	4c#\	De-	4e\	De-	4cc#X\	De-
4B\	-us	4B\	-us	4B\	-us	4f\	-us	4dd\	-us
4c#X\	Rex	4c#X\	Rex	4A\	rex	4g\	rex	4ee\	rex
4A\	cae-	4A\	cae-	4c#\	cae-	4e\	cae-	4cc#\	cae-
=22	=22	=22	=22	=22	=22	=22	=22	=22	=22
4d\	-les-	4d\	-les-	2A\	-le-	4f\	-les-	4dd\	-les-
4A\	.	4A\	.	.	.	4e\	.	4cc\	.
4F\	.	4F\	.	2A\	-stis	2f\	-tis	2dd\	-tis
4D\	-tis	4D\	-tis	.	.	.	.	.	.
=23	=23	=23	=23	=23	=23	=23	=23	=23	=23
2C#X/	De-	2C#X/	De-	2B-X\	De-	2g\	De-	2ee\	De-
2D/	-us	2D/	-us	2A\	-us	2f\	-us	2dd\	-us
=24	=24	=24	=24	=24	=24	=24	=24	=24	=24
2B-X\	Pa-	2B-X\	Pa-	2c#X\	Pa-	2g\	Pa-	2ee\	Pa-
4A\	-ter	4A\	-ter	4A\	-ter	4f\	-ter	4dd\	-ter
4G\	om-	4G\	om-	4A\	om-	4e\	om-	4cc#X\	om-
=25	=25	=25	=25	=25	=25	=25	=25	=25	=25
4F\	-ni-	4F\	-ni-	2A/	-ni-	2f\	-ni-	2dd\	-ni-
4G\	.	4G\	.	.	.	.	.	.	.
4A\	.	4A\	.	2A/	-po-	2e\	-po-	2cc\	-po-
4AA/	-po-	4AA/	-po-	.	.	.	.	.	.
=26	=26	=26	=26	=26	=26	=26	=26	=26	=26
2D\	-tens	2D\	-tens	2A/	-tens	2f\	-tens	2dd\	-tens,
4A\	Do-	4A\	Do-	4G/	Do-	4e\	Do-	4cc#X\	Do-
8A\	-mi-	8A\	-mi-	8G/	-mi-	8e\	-mi-	8cc#\	-mi-
8A\	-ne	8A\	-ne	8G/	-ne	8e\	-ne	8cc#\	-ne
!LO:LB:g=original	!	!	!	!	!	!LO:LB:g=original	!	!	!
=27	=27	=27	=27	=27	=27	=27	=27	=27	=27
4D\	Fi-	4D\	Fi-	4F/	Fi-	4f\	Fi-	4dd\	Fi-
4E\	-li	4E\	-li	4G/	-li	4e\	-li	4cc\	-li
4F\	u-	4F\	u-	4A/	u-	4f\	u-	4dd\	u-
4G\	-ni-	4G\	-ni-	4B-X/	-ni-	8g\L	-ni-	8ee\L	-ni-
.	.	.	.	.	.	8f\J	.	8dd\J	.
!	!	!	!	!	!	!	!	!LO:LB:g=original	!
=28	=28	=28	=28	=28	=28	=28	=28	=28	=28
4.A\	-ge-	4.A\	-ge-	4.A/	-ge-	4.e\	-ge-	4.cc#X\	-ge-
8A\	-ni-	8A\	-ni-	8A/	-ni-	8e\	-ni-	8cc#\	-ni-
2A\	-te	2A\	-te	2A/	-te	2e\	-te	2cc#\	-te
!	!	!	!	!LO:LB:g=original	!	!	!	!	!
=29	=29	=29	=29	=29	=29	=29	=29	=29	=29
1C#X	Je-	1C#X	Je-	1B-X	Je-	1g	Je-	1ee	Je-
!	!	!LO:LB:g=original	!	!	!	!	!	!	!
=30	=30	=30	=30	=30	=30	=30	=30	=30	=30
1D	-su	1D	-su	1A	-su	1f	-su	1dd	-su
=31	=31	=31	=31	=31	=31	=31	=31	=31	=31
1G	Je-	1G	Je-	1B-X	Je-	1e	Je-	1cc#X	Je-
=32	=32	=32	=32	=32	=32	=32	=32	=32	=32
4F\	.	4F\	.	2.A\	-su	4a\	.	4dd\	.
4E\	.	4E\	.	.	.	4g\	.	4cc\	.
4F\	-su	4F\	-su	.	.	4f\	-su	4dd\	-su
4G\	.	4G\	.	4B\	.	4e\	.	4ee\	.
=33	=33	=33	=33	=33	=33	=33	=33	=33	=33
2A\	Chris-	2A\	Chris-	1A	Chris-	2f\	Chri-	2dd\	Chri-
2AA/	.	2AA/	.	.	.	2e\	.	2cc\	.
=34	=34	=34	=34	=34	=34	=34	=34	=34	=34
2D/	-te.	2D/	-te.	2A/	-te	2f\	-ste	2dd\	-ste
4D/	Do-	4D/	Do-	4G/	Do-	4f\	Do-	4bn\	Do-
8D/	-mi-	8D/	-mi-	8G/	-mi-	8f\	-mi-	8b\	-mi-
8D/	-ne	8D/	-ne	8G/	-ne	8f\	-ne	8b\	-ne
!	!	!	!	!	!	!LO:LB:g=original	!	!	!
=35	=35	=35	=35	=35	=35	=35	=35	=35	=35
4Cn/	De-	4Cn/	De-	4G/	De-	4e\	De-	4cc\	De-
4BB/	-us	4BB/	-us	4G/	-us	4d\	-us	4dd\	-us
8C/L	a-	8C/L	a-	4G/	a-	4e\	a-	4cc\	a-
8D/J	.	8D/J	.	.	.	.	.	.	.
8E\L	-gnus	8E\L	-gnus	4G/	-gnus	4e\	-gnus	4cc\	-gnus
8F\J	.	8F\J	.	.	.	.	.	.	.
!	!	!	!	!	!	!	!	!LO:LB:g=original	!
=36	=36	=36	=36	=36	=36	=36	=36	=36	=36
4G\	De-	4G\	De-	4Bn\	De-	4d\	De-	4b\	De-
4G\	-i	4G\	-i	4B\	-i	4d\	-i	4b\	-i
4B\	Fi-	4B\	Fi-	4d\	Fi-	4f\	Fi-	4dd\	Fi-
8A\	-li-	8A\	-li-	8c\	-li-	8f\	-li-	8dd\	-li-
8G\	-us	8G\	-us	8B\	-us	8f\	-us	8dd\	-us
!LO:LB:g=original	!	!	!	!	!	!	!	!	!
=37	=37	=37	=37	=37	=37	=37	=37	=37	=37
4c\	Pa-	4c\	Pa-	2G/	Pa-	4e\	Pa-	4cc\	Pa-
4G\	.	4G\	.	.	.	4d\	.	4b\	.
4E\	.	4E\	.	4G/	.	2g\	.	2cc\	.
4C\	.	4C\	.	4E/	.	.	.	.	.
!	!	!LO:LB:g=original	!	!	!	!	!	!	!
=38	=38	=38	=38	=38	=38	=38	=38	=38	=38
4F\	.	4F\	.	2A/	.	2f\	.	2cc\	.
4D\	.	4D\	.	.	.	.	.	.	.
4G\	.	4G\	.	2G/	.	2d\	.	2b\	.
4GG/	.	4GG/	.	.	.	.	.	.	.
!	!	!	!	!LO:LB:g=original	!	!	!	!	!
=39	=39	=39	=39	=39	=39	=39	=39	=39	=39
2C/	-tris	2C/	-tris	2G/	-tris	2e\	-tris,	2cc\	-tris
2r	.	2r	.	2r	.	2A/	qui	2r	.
=40	=40	=40	=40	=40	=40	=40	=40	=40	=40
2r	.	2r	.	2r	.	2e\	tol-	2r	.
4r	.	4r	.	4r	.	4e\	-lis	4r	.
4E\	qui	4E\	qui	4E/	qui	4d\	pec-	4b\	qui
=41	=41	=41	=41	=41	=41	=41	=41	=41	=41
4A\	tol-	4A\	tol-	2A/	tol-	2c/	-ca-	2cc\	tol-
4E\	-lis	4E\	-lis	.	.	.	.	.	.
4C/	.	4C/	.	4A/	-lis	4e\	-ta	4cc\	-lis
4AA/	pec-	4AA/	pec-	4A/	pec-	4e\	pec-	4cc\	pec-
!	!	!	!	!	!	!LO:LB:g=original	!	!	!
=42	=42	=42	=42	=42	=42	=42	=42	=42	=42
2A\	-ca-	2A\	-ca-	2A/	-ca-	2e\	-ca-	2cc\	-ca-
4D\	.	4D\	.	2A/	-ta	4f\	-ta	2cc\	-ta
4D#X\	-ta	4D#X\	-ta	.	.	4f#X\	.	.	.
=43	=43	=43	=43	=43	=43	=43	=43	=43	=43
4E\	mun-	4E\	mun-	4G#X/	mun-	4e\	mun-	4b\	mun-
4E\	-di	4E\	-di	4G#/	-di	4e\	-di	4b\	-di
2r	.	2r	.	2r	.	2r	.	2r	.
!	!	!	!	!	!	!	!	!LO:LB:g=original	!
=44	=44	=44	=44	=44	=44	=44	=44	=44	=44
4G#X\	mi-	4G#X\	mi-	4B\	mi-	2e\	mi-	2dd\	mi-
4E\	.	4E\	.	4G#X\	.	.	.	.	.
4B\	.	4B\	.	4d\	.	2e\	-se-	2dd\	-se-
4G#\	-se-	4G#\	-se-	4B\	-se-	.	.	.	.
=45	=45	=45	=45	=45	=45	=45	=45	=45	=45
4A\	-re-	4A\	-re-	4c\	-re-	2e\	-re-	4cc\	-re-
4E\	.	4E\	.	4B\	.	.	.	4dd\	.
4C/	.	4C/	-re	2A\	-re	2e\	-re	2cc\	-re
4AA/	-re	4AA/	.	.	.	.	.	.	.
=46	=46	=46	=46	=46	=46	=46	=46	=46	=46
4D/	no-	4D/	no-	2B\	no-	1e	no-	2dd\	no-
4BB/	.	4BB/	.	.	.	.	.	.	.
2E\	.	2E\	.	2G#X/	.	.	.	2b\	.
!	!	!LO:LB:g=original	!	!	!	!	!	!	!
=47	=47	=47	=47	=47	=47	=47	=47	=47	=47
2AA/	-bis,	2AA/	-bis,	2A/	-bis.	2e\	-bis,	2cc\	-bis,
2A\	qui	2A\	qui	2A/	qui	2e\	qui	2cc\	qui
!LO:LB:g=original	!	!	!	!LO:LB:g=original	!	!	!	!	!
=48	=48	=48	=48	=48	=48	=48	=48	=48	=48
4G#X\	tol-	4G#X\	tol-	4B\	tol-	2e\	tol-	2b\	tol-
4F\	-lis	4F\	-lis	4A\	.	.	.	.	.
4E\	.	4E\	.	4G#X\	-lis	4e\	-lis	4b\	-lis
4G#\	pec-	4G#\	pec-	4B\	pec-	4e\	pec-	4dd\	pec-
=49	=49	=49	=49	=49	=49	=49	=49	=49	=49
2A\	-ca-	2A\	-ca-	4c\	-ca-	2e\	-ca-	4ee\	-ca-
.	.	.	.	4B\	.	.	.	4dd\	.
2AA/	-ta	2AA/	-ta	2A\	-ta	2e\	-ta	2cc\	-ta
=50	=50	=50	=50	=50	=50	=50	=50	=50	=50
4A\	mun-	4A\	mun-	1A	mun-	1e	mun-	4cc\	mun-
4c\	.	4c\	.	.	.	.	.	4ee\	.
4B\	.	4B\	.	.	.	.	.	4dd\	.
4A\	.	4A\	.	.	.	.	.	4cc\	.
!	!	!	!	!	!	!LO:LB:g=original	!	!	!
=51	=51	=51	=51	=51	=51	=51	=51	=51	=51
2E\	-di	2E\	-di	2G#X/	-di	2e\	-di	2b\	-di
2r	.	2r	.	2r	.	2r	.	2r	.
!	!	!	!	!	!	!	!	!LO:LB:g=original	!
=52	=52	=52	=52	=52	=52	=52	=52	=52	=52
4.C/	Sus-	4.C/	Sus-	4.Gn/	Sus-	4.g\	Sus-	4.ee\	Sus-
8D/	-ci-	8D/	-ci-	8G/	-ci-	8f\	-ci-	8dd\	-ci-
2E/	-pe	2E/	-pe	2G/	-pe	2e\	-pe	2cc\	-pe
=53	=53	=53	=53	=53	=53	=53	=53	=53	=53
*	*ij	*	*ij	*	*ij	*	*ij	*	*ij
4.G\	Sus-	4.G\	Sus-	4.Bn\	Sus-	4.f\	Sus-	4.dd\	Sus-
8G\	-ci-	8G\	-ci-	8B\	-ci-	8e\	-ci-	8cc\	-ci-
2G\	-pe	2G\	-pe	2B\	-pe	2d\	-pe	2b\	-pe
*	*Xij	*	*Xij	*	*Xij	*	*Xij	*	*Xij
=54	=54	=54	=54	=54	=54	=54	=54	=54	=54
4d\	de-	4d\	de-	4G/	de-	4f\	de-	4b\	de-
4c\	-pre-	4c\	-pre-	4G/	-pre-	4e\	-pre-	4cc\	-pre-
4B\	-ca-	4B\	-ca-	4G/	-ca-	4d\	-ca-	4dd\	-ca-
4G\	-ti-	4G\	-ti-	4B/	-ti-	4f\	-ti-	4b\	-ti-
=55	=55	=55	=55	=55	=55	=55	=55	=55	=55
4c\	-o-	4c\	-o-	2G/	-o-	2e\	-o-	2cc\	-o-
4G\	.	4G\	.	.	.	.	.	.	.
4E\	.	4E\	.	4c\	.	4g\	.	4ee\	.
4F\	-nem	4F\	-nem	4B\	-nem	4f\	-nem	4dd\	-nem
!	!	!LO:LB:g=original	!	!LO:LB:g=original	!	!	!	!	!
=56	=56	=56	=56	=56	=56	=56	=56	=56	=56
1G	nos-	1G	nos-	1G	nos-	2e\	nos-	2cc\	nos-
.	.	.	.	.	.	2d\	.	2b\	.
=57	=57	=57	=57	=57	=57	=57	=57	=57	=57
2C/	-tram,	2C/	-tra(m),	2G/	-tram,	2e\	-tram,	2cc\	-tram,
2GG/	qui	2GG/	qui	2d\	qui	2f\	qui	2b\	qui
=58	=58	=58	=58	=58	=58	=58	=58	=58	=58
4C/	se-	4C/	se-	4c\	se-	4e\	se-	2g/	se-
4D/	.	4D/	.	4B\	.	4f\	.	.	.
4E\	-des	4E\	-des	4c\	-des	4g\	-des	4g/	-des
4F\	ad	4F\	ad	4c\	ad	4a\	ad	4a/	ad
!LO:LB:g=original	!	!	!	!	!	!	!	!LO:LB:g=original	!
=59	=59	=59	=59	=59	=59	=59	=59	=59	=59
4G\	dex-	4G\	dex-	4B\	dex-	2g\	dex-	2dd\	dex-
4A\	.	4A\	.	4c\	.	.	.	.	.
4B\	-te-	4B\	-te-	4d\	-ter-	4g\	-te-	4dd\	-te-
4G\	-ram	4G\	-ram	4B\	-am	4g\	-ram	4dd\	-ram
!	!	!	!	!	!	!LO:LB:g=original	!	!	!
=60	=60	=60	=60	=60	=60	=60	=60	=60	=60
2c\	Pa-	2c\	Pa-	2G/	Pa-	2g\	Pa-	2ee\	Pa-
2A\	.	2A\	.	2c\	.	2f#\	.	2dd\	.
=61	=61	=61	=61	=61	=61	=61	=61	=61	=61
2G\	-tris	2G\	-tris	2B\	-tris	2g\	-tris	2dd\	-tris
4G\	mi-	4G\	mi-	4B\	mi-	4g\	mi-	4dd\	mi-
4G\	-se-	4G\	-se-	4B\	-se-	4g\	-se-	4dd\	-se-
=62	=62	=62	=62	=62	=62	=62	=62	=62	=62
2A\	-re-	2A\	-re-	2c\	-re-	2f#X\	-re-	2dd\	-re-
2B\	-re	2B\	-re	2d\	-re	2fn\	-re	2g/	-re
=63	=63	=63	=63	=63	=63	=63	=63	=63	=63
4c\	no-	4c\	no-	1G	no-	1e	no-	1cc	no-
4G\	.	4G\	.	.	.	.	.	.	.
4E\	.	4E\	.	.	.	.	.	.	.
4C\	.	4C\	.	.	.	.	.	.	.
=64	=64	=64	=64	=64	=64	=64	=64	=64	=64
4F\	.	4F\	.	1G	.	1d	.	1b	.
4D\	.	4D\	.	.	.	.	.	.	.
2G\	.	2G\	.	.	.	.	.	.	.
=65	=65	=65	=65	=65	=65	=65	=65	=65	=65
1C	-bis	1C	-bis	2G/	-bis	2e\	-bis	2cc\	-bis
.	.	.	.	2r	.	2r	.	2r	.
!	!	!LO:LB:g=original	!	!LO:LB:g=original	!	!	!	!LO:LB:g=original	!
==;;	==	==	==	==;;	==	==	==	==;;	==
*-	*-	*-	*-	*-	*-	*-	*-	*-	*-
!!!system-decoration: [(s1,s2,s3,s4)]s5
!!!ENC: Berenika Jozajtis
!!!END: 2024-02-28
!!!EED: Marta Chmielewska
!!!EEV: 2024-05-02
